!!!COM: Bach, Johann Sebastian
!!!OPR: Joh. Seb. Bachs vierstimmige Choralgesänge
!!!XEN: Four-part Chorales
!!!OTL: 154. O wir armen Sünder
!!!SCT: BWV 407
!!!SCA: Thematisch-systematisches Verzeichnis der musikalischen Werke Johann Sebastian Bach: Bach-Werke-Verzeichnis (Schmieder)
!!!YOR: Bach Gesellschaft Edition xxxix
!!!ENC: Steven Rasmussen
!!!CDT: 1685/3//-1750/7/28/
!!!OCY: Deutschland
!!!YEC: Copyright (c) 1994, 2000 Center for Computer Assisted Research in the Humanities
!!!YEM: Rights to all derivative editions reserved
!!!YEN: United States of America
**kern	**silbe	**kern	**silbe	**kern	**silbe	**kern	**silbe
*I:[SOPRANO]	*I:[SOPRANO]	*I:[ALTO]	*I:[ALTO]	*I:[TENORE]	*I:[TENORE]	*I:[BASSO]	*I:[BASSO]
*clefG2	*	*clefG2	*	*clefGv2	*	*clefF4	*
*k[f#c#]	*	*k[f#c#]	*	*k[f#c#]	*	*k[f#c#]	*
*D:	*	*D:	*	*D:	*	*D:	*
*M4/4	*	*M4/4	*	*M4/4	*	*M4/4	*
=1-	=1-	=1-	=1-	=1-	=1-	=1-	=1-
4a	O	4f#	.	4d	.	4.D	.
4a	wir	4g	.	4e	.	.	.
.	.	.	.	.	.	8C#	.
4a	ar-	8f#L	.	4e	.	8DL	.
.	.	8gJ	.	.	.	8EJ	.
4a	-men	4a	.	4d	.	8F#L	.
.	.	.	.	.	.	8DJ	.
=2	=2	=2	=2	=2	=2	=2	=2
2b	SÃ¼n-	8aL	.	2d	.	4G	.
.	.	16gL	.	.	.	.	.
.	.	16f#JJ	.	.	.	.	.
.	.	4g	.	.	.	4GG	.
2a;	-der!	(4g	.	2d;	.	2D;	.
.	.	4f#;)	.	.	.	.	.
=3	=3	=3	=3	=3	=3	=3	=3
4g	uns-	4.e	.	8dL	.	4E	.
.	.	.	.	16c#L	.	.	.
.	.	.	.	16BJJ	.	.	.
4f#	-re	.	.	4A	.	4F#	.
.	.	8d	.	.	.	.	.
4e	Mis-	8dL	.	4B	.	4G	.
.	.	16c#L	.	.	.	.	.
.	.	16BJJ	.	.	.	.	.
4e	-se-	4c#	.	8AL	.	8AL	.
.	.	.	.	8GJ	.	8AAJ	.
=4	=4	=4	=4	=4	=4	=4	=4
1d;	-tat,	1A;	.	1F#;	.	1D;	.
=5	=5	=5	=5	=5	=5	=5	=5
4a	da-	4d	.	4F#	.	4D	.
4a	-rin	8c#L	.	4E	.	8AAL	.
.	.	8dJ	.	.	.	8BBJ	.
4a	wir	8eL	.	8AL	.	8C#L	.
.	.	8c#J	.	8GJ	.	8AAJ	.
4a	em-	8dL	.	4F#	.	8DL	.
.	.	8eJ	.	.	.	8C#J	.
=6	=6	=6	=6	=6	=6	=6	=6
2b	-pfan-	8f#L	.	8F#L	.	8D#	.
.	.	8gJ	.	8EJ	.	4E	.
.	.	4f#	.	4B	.	.	.
.	.	.	.	.	.	8D#	.
2g;	-gen	2e;	.	2B;	.	2E;	.
=7	=7	=7	=7	=7	=7	=7	=7
4b	und	4g	.	4e	.	8EL	.
.	.	.	.	.	.	8DJ	.
4b	ge-	4g#	.	4e	.	8CnL	.
.	.	.	.	.	.	8BBJ	.
4ccn	-bo-	4.a	.	8eL	.	8AAL	.
.	.	.	.	8AJ	.	8FFnJ	.
4b	-ren	.	.	8fnL	.	8DDL	.
.	.	8g#	.	8eJ	.	8EEJ	.
=8	=8	=8	=8	=8	=8	=8	=8
1a;	sind,	1e;	.	1c#;	.	1AA;	.
=9	=9	=9	=9	=9	=9	=9	=9
4a	hat	4f#	.	4d	.	8DL	.
.	.	.	.	.	.	8EJ	.
4a	ge-	8f#L	.	8dL	.	8F#L	.
.	.	8eJ	.	8c#J	.	8GJ	.
4a	-bracht	8f#L	.	8dL	.	8F#L	.
.	.	8gJ	.	8eJ	.	8EJ	.
4a	und	4a	.	8f#L	.	8DL	.
.	.	.	.	8eJ	.	8CnJ	.
=10	=10	=10	=10	=10	=10	=10	=10
2dd	al-	4a	.	8dL	.	8BBL	.
.	.	.	.	8cnJ	.	8AA	.
.	.	4g	.	4d	.	8BB	.
.	.	.	.	.	.	8C#J	.
4a;	-le	4f#;	.	4d;	.	4D;	.
4a	in	4f#	.	8dL	.	4D	.
.	.	.	.	8cJ	.	.	.
=11	=11	=11	=11	=11	=11	=11	=11
4b	sol-	8eL	.	8B	sol-	8GL	sol-
.	.	8d#J	.	8A	-che	8F#J	.
4b	-che	4e	.	4.G	gro-	8EL	-che
.	.	.	.	.	.	8DJ	.
4a	gro-	4e	.	.	.	8CnL	gro-
.	.	.	.	16F#LL	.	8C#J	.
.	.	.	.	16EJJ	.	.	.
4a	-sse	8dnL	.	4F#	-sse	8DL	-sse
.	.	8cnJ	.	.	.	8D#J	.
=12	=12	=12	=12	=12	=12	=12	=12
1g;	Not,	1B;	.	1G;	.	1E;	.
=13	=13	=13	=13	=13	=13	=13	=13
4a	dass	8eL	.	8EL	.	8C#L	.
.	.	8c#J	.	8GJ	.	8AAJ	.
4a	wir	8dL	.	8F#L	.	8BBL	.
.	.	8eJ	.	8EJ	.	8C#J	.
4a	un-	4f#	.	8DL	.	8DL	.
.	.	.	.	8AJ	.	8EJ	.
4a	-ter-	4f#	.	4d	.	8F#L	.
.	.	.	.	.	.	8GJ	.
=14	=14	=14	=14	=14	=14	=14	=14
2a	-wor-	8eL	.	8dL	.	4A	.
.	.	8g	.	8c#J	.	.	.
.	.	8f#	.	4cn	.	4AA	.
.	.	8eJ	.	.	.	.	.
2f#;	-fen	8eL	.	2B;	.	2BB;	.
.	.	16d#L	.	.	.	.	.
.	.	16c#JJ	.	.	.	.	.
.	.	4d#;	.	.	.	.	.
=15	=15	=15	=15	=15	=15	=15	=15
4g	sind	4.e	.	4B	.	8EEL	.
.	.	.	.	.	.	8GGJ	.
4f#	dem	.	.	4B	.	8BBL	.
.	.	8d	.	.	.	8AAJ	.
4.e	ew'-	8dL	.	8BL	.	8GGL	.
.	.	16c#L	.	8GJ	.	8EEJ	.
.	.	16BJJ	.	.	.	.	.
.	.	4c#	.	8EL	.	4AA	.
8d	-gen	.	.	8AJ	.	.	.
=16	=16	=16	=16	=16	=16	=16	=16
1d;	Tod.	1A;	.	1F#;	.	1DD;	.
=17	=17	=17	=17	=17	=17	=17	=17
2a	Ky-	2f#	.	4A	Ky-	2D	Ky-
.	.	.	.	2d	.	.	.
2b	-rie	(4fn	.	.	.	2GG#	-rie
.	.	4e)	.	8cnL	-rie	.	.
.	.	.	.	8BJ	.	.	.
=18	=18	=18	=18	=18	=18	=18	=18
1ccn	e-	4e	e-	4A	e-	2.AA	e-
.	.	8fnL	.	4G	.	.	.
.	.	8gJ	.	.	.	.	.
.	.	4a	.	4Fn	.	.	.
.	.	[4g	.	4E	.	8BBL	.
.	.	.	.	.	.	8CnJ	.
=19	=19	=19	=19	=19	=19	=19	=19
2a	-lei-	4g]	.	4D	-lei-	4D	-lei-
.	.	4fn	.	2d	.	4BB	.
2g#	.	2e	-lei-	.	.	2E	.
.	.	.	.	8cnL	.	.	.
.	.	.	.	8BJ	.	.	.
=20	=20	=20	=20	=20	=20	=20	=20
1a;	-son!	1e;	-son!	1c#;	-son!	1AA;	-son!
=21	=21	=21	=21	=21	=21	=21	=21
2.dd	Chri-	2.b	Chri-	4F#	Chri-	2.BB	Chri-
.	.	.	.	8EL	.	.	.
.	.	.	.	8F#J	.	.	.
.	.	.	.	4G	.	.	.
4ee	.	8aL	.	4E	.	4C#	.
.	.	8gJ	.	.	.	.	.
=22	=22	=22	=22	=22	=22	=22	=22
2a	.	[2f#	.	8F#L	.	2D	.
.	.	.	.	8G#J	.	.	.
.	.	.	.	2A	.	.	.
2b	-ste	8f#L]	.	.	.	2D#	-ste
.	.	8g#J	.	.	.	.	.
.	.	4a	-ste	4F#	-ste	.	.
=23	=23	=23	=23	=23	=23	=23	=23
1cc#	e-	2.g#	e-	4c#	e-	2E	e-
.	.	.	.	8BL	.	.	.
.	.	.	.	8AJ	.	.	.
.	.	.	.	8G#L	.	2E#	.
.	.	.	.	8F#J	.	.	.
.	.	[4c#	.	4G#	.	.	.
=24	=24	=24	=24	=24	=24	=24	=24
2.a	-lei-	4c#]	.	4A	-lei-	2F#	-lei-
.	.	8dL	.	8BL	.	.	.
.	.	8eJ	.	8c#J	.	.	.
.	.	4f#	-lei-	[2d	.	2BB	.
4g#	.	8eL	.	.	.	.	.
.	.	8dJ	.	.	.	.	.
=25	=25	=25	=25	=25	=25	=25	=25
1a	-son!	1e	-son!	4d]	.	1AA	-son!
.	.	.	.	4d	-son!	.	.
.	.	.	.	4c#	.	.	.
.	.	.	.	4B	.	.	.
=26	=26	=26	=26	=26	=26	=26	=26
4.a	Ky-	8c#L	Ky-	[2A	Ky-	4F#	Ky-
.	.	8dJ	.	.	.	.	.
.	.	[4e	-rie	.	.	4C#	.
8g	.	.	.	.	.	.	.
4f#	-rie	8eL]	.	16ALL]	.	4D	-rie
.	.	.	.	16BJJ	.	.	.
.	.	8dJ	.	4cn	-rie	.	.
4g	e-	[4d	e-	.	.	4GG	e-
.	.	.	.	16BLL	e-	.	.
.	.	.	.	16AJJ	.	.	.
=27	=27	=27	=27	=27	=27	=27	=27
2e	-lei-	8dL]	.	8B	-lei-	4GG#	-lei-
.	.	16c#L	.	4E	.	.	.
.	.	16BJJ	.	.	.	.	.
.	.	4c#	-lei-	.	.	4AA	.
.	.	.	.	16F#LL	.	.	.
.	.	.	.	16GJJ	.	.	.
2d;	-son!	2A;	-son!	2F#;	-son!	2DD;	-son!
==|!	==|!	==|!	==|!	==|!	==|!	==|!	==|!
*-	*-	*-	*-	*-	*-	*-	*-
!!!RWG: Key is interpreted using the Humdrum key tool.
!!!END: 1994/07/29
!!!EMD: Converted from MuseData to Humdrum Dec 19, 2000, by Andreas Kornstaedt using muse2kern.
!!!EED: Craig Stuart Sapp
!!!EEV: 2024/03/31
!!!ONB: Some non-unicode characters
